X: 9376
T: Dancing The Baby
R: barndance
M: 4/4
K: Dmajor
|:cee dee|cee dcB|cee dee|(3AAA A cBA|
cee dee|cee dcB|(3AAA c BcB|A (3cBA AAA:|
|:acc ecc|acc ecc|acc ecc|(3AAA A cBA|
acc ecc|acc ecc|(3AAA c BcB|A (3cBA AAA:|

